X:1
T:Sing and Pray!
T:Philip Paul Bliss (1838-1876)
T:Sing and Pray!
T:Public Domain
T:Public Domain
T:Public Domain
C:Philip Paul Bliss (1838-1876)
Z:Public Domain
%%score ( 1 2 ) ( 3 4 )
L:1/8
M:3/4
K:C
V:1 treble 
V:2 treble 
V:3 bass 
V:4 bass 
V:1
 G2 | G3 [EA] [FB]2 | [Ec]4 [Ec]>[Ec] | [Ec]2 E2 [D^F]2 | [DG]4 G>G | G2 [^FA]2 [=FB]2 | %6
w: 1.~E-|ni- ty dawns|my vi- sion|to- day, Ga-|round me my|to sing and|
w: 2.~“E-|ni- ty dawns!”|the glo- ries|that rise, How|burst on my|its bliss- ful|
w: 3.~“E-|ni- ty dawns!”|will be no|more night, I|near- ing the|the ci- ty|
w: 4.~“E-|ni- ty dawns!”|re- cedes from|my view; Weep-|friends, now fare-|must bid you|
w: 5.~“E-|ni- ty dawns!”|a source of|con- tent, That|preach- ing sal-|my life has|
 [Ec]4 [Ec]>[Ec] | [Fd]2 [Ec]2 [DB]2 | [Ec]4 G2 | G3 [EA] [FB]2 | [Ec]4 [Ec]>[Ec] | %11
w: pray; The sha-|dows are past,|and the|is with- drawn,|ly now does|
w: prise; With rap-|ture the gleam|of the|ty I see,|the crown and|
w: light; The sha-|dows of time|are now|ing a- way,|ry not, O|
w: dieu; I’m rest-|ing in Je-|sus, His|its I plead,|ye not, “for|
w: spent; ’Tis “Je-|sus my all,”|and the|ior of men,|His grace be|
 [Ec]2 E2 [D^F]2 | [DG]4 G>G | G2 [^FA]2 [=FB]2 | [Ec]4 [Ec]>[Ec] | [Fd]2 [Ec]2 [DB]2 | [Ec]4 || %17
w: the morn of|ter- ni- ty|||||
w: the man- sion|wait- ing for|||||
w: my Sav- ior,|quick- ly, I|le- lu- jah!|le- lu- jah!|Hal- le- lu-|jah,|
w: my God shall|ply all your|||||
w: up- on you|ev- er. A-|||||
"^Refrain" G>G | [Ec]2 (EF) [Gc]>[Ec] | [Gd]2 [Gd]2 [Gd]>[Gd] | [Ge]2 [Gd]2 [^Fc]2 | %21
w: ||||
w: ||||
w: we sing!|con- quered * the grave,|bing death of its|sting; Ho- san-|
w: ||||
w: ||||
 [Gd]4 [Ge]>[Fd] | [Ec]2 [Ec]2 [EA]2 | [Ac]4 [GB]>[FA] | [EG]2 [EG]2 [DF]2 | [CE]4 ([EG]>[EG]) | %26
w: |||||
w: |||||
w: na! a- gain|let the glad|an- them ring,|“Sing and pray!|E- ter- *|
w: |||||
w: |||||
 [Ec]2 [Gc]2 [Gd]2 | [Ge]4 [Fd]>[Fc] | [Ec]2 [Ec]2 [FA]2 | [EG]6 | [FA]4 [FA]2 | [Ec]4 [Ec]2 | %32
w: ||||||
w: ||||||
w: ni- ty dawns!”||||||
w: ||||||
w: ||||||
 [Fd]2 [Ec]2 [DB]2 | [Ec]4 |] %34
w: ||
w: ||
w: ||
w: ||
w: ||
V:2
 G2 | G3 x3 | x6 | x2 E2 x2 | x4 G>G | G2 x4 | x6 | x6 | x4 G2 | G3 x3 | x6 | x2 E2 x2 | x4 G>G | %13
w: ter-|on||ther|loved ones|to|||veil|Bright-||e-|dawn. *|
w: ter-|Oh,||they|soul in|sur-|||ci-|Where||are|me. *|
w: ter-|There||am|gates of|of|||pass-|Tar-||come|pray. Hal-|
w: ter-|Earth||ing|well, I|a-|||mer-|Fear||sup-|need.” *|
w: ter-|’Tis||in|va- tion|been|||Sav-|May||for-|men. *|
 G2 x4 | x6 | x6 | x4 || G>G | x2 c2 x2 | x6 | x6 | x6 | x6 | x6 | x6 | x6 | x6 | x6 | x6 | x6 | %30
w: |||||||||||||||||
w: |||||||||||||||||
w: Hal-||||Je- sus|rob-||||||||||||
w: |||||||||||||||||
w: |||||||||||||||||
 x6 | x6 | x6 | x4 |] %34
w: ||||
w: ||||
w: ||||
w: ||||
w: ||||
V:3
 G,2 | [CE]3 C [G,D]2 | [C,C]4 [C,C]>[E,C] | [A,C]2 [A,C]2 [A,C]2 | [G,B,]4 [G,B,]>[G,B,] | %5
 [G,B,]2 [G,C]2 [G,D]2 | [A,C]4 A,>A, | [F,A,]2 G,2 G,2 | [C,G,]4 G,2 | [CE]3 C [G,D]2 | %10
 [C,C]4 [C,C]>[E,C] | [A,C]2 [A,C]2 [A,C]2 | [G,B,]4 [G,B,]>[G,B,] | [G,B,]2 [G,C]2 [G,D]2 | %14
 [A,C]4 A,>A, | [F,A,]2 G,2 G,2 | [C,G,]4 || G,>G, | [C,C]2 (C,D,) [E,C]>[C,C] | %19
 [G,B,]2 ([G,B,][A,C]) [B,D]>[G,B,] | C2 [B,D]2 [A,D]2 | [G,B,]4 [G,B,]>[G,B,] | %22
 [A,C]2 [A,C]2 [A,C]2 | [F,C]4 [F,C]>[F,C] | [G,C]2 [G,C]2 G,2 | [C,G,]4 ([C,G,]>[C,G,]) | %26
 [C,G,]2 [E,C]2 [G,B,]2 | C4 C>C | C2 [C,C]2 [C,C]2 | [C,C]6 | [F,C]4 [F,A,]2 | [C,G,]4 A,2 | %32
 [F,A,]2 G,2 G,2 | [C,G,]4 |] %34
V:4
 G,2 | x3 C x2 | x6 | x6 | x6 | x6 | x4 A,>A, | x2 G,2 G,2 | x4 G,2 | x3 C x2 | x6 | x6 | x6 | x6 | %14
 x4 A,>A, | x2 G,2 G,2 | x4 || G,>G, | x2 C2 x2 | x6 | C2 x4 | x6 | x6 | x6 | x4 G,2 | x6 | x6 | %27
 C4 C>C | C2 x4 | x6 | x6 | x4 A,2 | x2 G,2 G,2 | x4 |] %34

